src/img/feat-1.svg

<svg width="33" height="33" viewBox="0 0 33 33" fill="none" xmlns="http://www.w3.org/2000/svg">
<rect y="16" width="17" height="17" rx="5" fill="#3ED9B0"/>
<g clip-path="url(#clip0)">
<path d="M26.7808 28.7419L25.5486 25.0449C25.118 23.7541 24.0195 22.8014 22.6803 22.5576L19.1232 21.9104V21.6347C19.7422 21.2754 20.2809 20.7948 20.7099 20.2258H21.7845C22.6649 20.2258 23.3813 19.5094 23.3813 18.629V12.2419C23.3813 8.4267 20.2772 5.32257 16.4619 5.32257C12.6467 5.32257 9.54257 8.4267 9.54257 12.2419V15.9677C9.54257 16.9939 10.2723 17.8525 11.2399 18.0526C11.5385 19.5823 12.4945 20.8767 13.8006 21.6347V21.9104L10.243 22.5576C8.9044 22.8014 7.80528 23.7541 7.37522 25.0449L7.16232 25.6841L5.34945 23.8712C5.14186 23.6637 5.14186 23.3257 5.34945 23.1181L7.45186 21.0162L3.5057 17.07L1.1297 19.446C0.426058 20.1497 0.0385742 21.0854 0.0385742 22.0807C0.0385742 23.076 0.426058 24.0112 1.1297 24.7149L8.32317 31.9083C9.02682 32.612 9.96253 33 10.9578 33C11.9532 33 12.8883 32.612 13.5755 31.9243L16.1681 29.5488L15.3596 28.7419H26.7808ZM22.3168 18.629C22.3168 18.9228 22.0778 19.1613 21.7845 19.1613H21.3369C21.4912 18.8095 21.6083 18.4385 21.6839 18.0526C21.9117 18.0052 22.1214 17.9147 22.3168 17.8008V18.629ZM21.7845 16.8843V15.0512C22.1012 15.2359 22.3168 15.5755 22.3168 15.9677C22.3168 16.36 22.1012 16.6996 21.7845 16.8843ZM11.1393 16.8843C10.8227 16.6996 10.6071 16.36 10.6071 15.9677C10.6071 15.5755 10.8227 15.2359 11.1393 15.0512V16.8843ZM11.1393 13.3064V13.9143C10.9499 13.9638 10.7721 14.0383 10.6071 14.1346V12.2419C10.6071 9.01378 13.2338 6.38709 16.4619 6.38709C19.6901 6.38709 22.3168 9.01378 22.3168 12.2419V14.1346C22.1518 14.0383 21.974 13.9632 21.7845 13.9143V13.3064H21.2523C19.6784 13.3064 18.1987 12.6933 17.0852 11.5803L16.4619 10.9571L15.8387 11.5803C14.7252 12.6933 13.2455 13.3064 11.6716 13.3064H11.1393ZM12.2039 17.0322V14.3507C13.8022 14.2304 15.2926 13.571 16.4619 12.4591C17.6313 13.571 19.1216 14.231 20.72 14.3507V17.0322C20.72 17.8083 20.5082 18.5343 20.1441 19.1613H16.4619V20.2258H19.2691C18.5186 20.8863 17.5376 21.2903 16.4619 21.2903C14.1141 21.2903 12.2039 19.38 12.2039 17.0322ZM18.0587 22.1095V22.1345L16.4619 23.7312L14.8652 22.1345V22.1095C15.3697 22.2681 15.9057 22.3548 16.4619 22.3548C17.0181 22.3548 17.5541 22.2681 18.0587 22.1095ZM8.38438 25.3812C8.69149 24.4594 9.47657 23.7786 10.433 23.604L14.1535 22.9281L16.4619 25.2365L18.7698 22.9286L22.4898 23.6046C23.4462 23.7792 24.2313 24.4594 24.5384 25.3818L25.3043 27.6774H14.2951L12.222 25.6043L9.91835 27.6881C9.71769 27.8898 9.36693 27.8898 9.16574 27.6881L8.00328 26.5256L8.38438 25.3812ZM3.50517 18.5753L5.94611 21.0162L5.36807 21.5942L2.92714 19.1533L3.50517 18.5753ZM12.8383 31.1568C12.3359 31.6582 11.6673 31.9355 10.9568 31.9355C10.2462 31.9355 9.5777 31.6582 9.07472 31.1557L1.88125 23.9628C1.3788 23.4603 1.10203 22.7918 1.10203 22.0812C1.10203 21.3702 1.3788 20.7016 1.88125 20.1992L2.17399 19.9064L4.61493 22.3474L4.59577 22.3665C3.97356 22.9893 3.97356 24.0022 4.59577 24.6249L8.41259 28.4417C8.71438 28.743 9.11517 28.9096 9.54204 28.9096C9.96891 28.9096 10.3697 28.7435 10.6518 28.4604L10.6917 28.4247L13.1438 30.8768L12.8383 31.1568ZM13.9294 30.1561L11.4827 27.7093L12.1858 27.0738L14.6283 29.5164L13.9294 30.1561Z" fill="#333333"/>
<path d="M31.365 0H23.9134C23.0331 0 22.3167 0.716419 22.3167 1.59677V5.85484C22.3167 6.73519 23.0331 7.45161 23.9134 7.45161H25.3351L24.7847 10.6617L29.921 7.45161H31.365C32.2454 7.45161 32.9618 6.73519 32.9618 5.85484V1.59677C32.9618 0.716419 32.2454 0 31.365 0ZM31.8973 5.85484C31.8973 6.14811 31.6583 6.3871 31.365 6.3871H29.6155L26.2351 8.49963L26.5976 6.3871H23.9134C23.6201 6.3871 23.3812 6.14811 23.3812 5.85484V1.59677C23.3812 1.3035 23.6201 1.06452 23.9134 1.06452H31.365C31.6583 1.06452 31.8973 1.3035 31.8973 1.59677V5.85484Z" fill="#333333"/>
<path d="M30.8329 2.12903H24.4458V3.19354H30.8329V2.12903Z" fill="#333333"/>
<path d="M28.7039 4.25809H24.4458V5.3226H28.7039V4.25809Z" fill="#333333"/>
<path d="M30.8328 4.25809H29.7683V5.3226H30.8328V4.25809Z" fill="#333333"/>
<path d="M16.462 1.59677C9.50749 1.59677 3.51692 6.40732 1.95954 13.1175L0.950908 11.4361L0.0380859 11.9838L1.90897 15.1012L5.02641 13.2303L4.47871 12.3175L3.0363 13.183C4.54471 7.04443 10.0648 2.66129 16.462 2.66129C17.8602 2.66129 19.2398 2.86887 20.5625 3.27871L20.8776 2.26209C19.4527 1.82032 17.9672 1.59677 16.462 1.59677Z" fill="#333333"/>
<path d="M32.7033 11.7853L29.5859 9.91437L27.7155 13.0323L28.6283 13.58L29.5598 12.0274C30.05 13.4619 30.3007 14.9623 30.3007 16.5C30.3007 19.6653 29.2042 22.7599 27.2141 25.2131L28.0407 25.8837C30.1846 23.2416 31.3652 19.9086 31.3652 16.5C31.3652 14.8718 31.1028 13.282 30.5913 11.7597L32.1556 12.6981L32.7033 11.7853Z" fill="#333333"/>
</g>
<defs>
<clipPath id="clip0">
<rect width="33" height="33" fill="white"/>
</clipPath>
</defs>
</svg>

<svg width="33" height="33" viewBox="0 0 33 33" xmlns="http://www.w3.org/2000/svg" fill="none"><rect y="16" width="17" height="17" rx="5" fill="#3ED9B0"/><g clip-path="url(#a)" fill="#333"><path d="M26.781 28.742l-1.232-3.697c-.431-1.291-1.529-2.243-2.868-2.487l-3.557-.647v-.276c.619-.359 1.158-.84 1.587-1.409h1.075c.88 0 1.597-.716 1.597-1.597v-6.387c0-3.815-3.104-6.919-6.919-6.919-3.815 0-6.919 3.104-6.919 6.919v3.726c0 1.026.73 1.885 1.697 2.085.299 1.53 1.255 2.824 2.561 3.582v.276l-3.558.647c-1.339.244-2.438 1.197-2.868 2.487l-.213.639-1.813-1.813c-.208-.208-.208-.546 0-.753l2.102-2.102-3.946-3.946-2.376 2.376c-.704.704-1.091 1.639-1.091 2.635 0 .995.387 1.93 1.091 2.634l7.193 7.193c.704.704 1.639 1.092 2.635 1.092.995 0 1.93-.388 2.618-1.076l2.593-2.375-.808-.807h11.421zm-4.464-10.113c0 .294-.239.532-.532.532h-.448c.154-.352.271-.723.347-1.109.228-.047.438-.138.633-.252v.828zm-.532-1.745v-1.833c.317.185.532.524.532.917 0 .392-.216.732-.532.917zm-10.645 0c-.317-.185-.532-.524-.532-.917 0-.392.216-.732.532-.917v1.833zm0-3.578v.608c-.189.05-.367.124-.532.22v-1.893c0-3.228 2.627-5.855 5.855-5.855 3.228 0 5.855 2.627 5.855 5.855v1.893c-.165-.096-.343-.171-.532-.22v-.608h-.532c-1.574 0-3.054-.613-4.167-1.726l-.623-.623-.623.623c-1.114 1.113-2.593 1.726-4.167 1.726h-.532zm1.065 3.726v-2.681c1.598-.12 3.089-.78 4.258-1.892 1.169 1.112 2.66 1.772 4.258 1.892v2.681c0 .776-.212 1.502-.576 2.129h-3.682v1.064h2.807c-.751.66-1.732 1.064-2.807 1.064-2.348 0-4.258-1.91-4.258-4.258zm5.855 5.077v.025l-1.597 1.597-1.597-1.597v-.025c.505.159 1.04.245 1.597.245.556 0 1.092-.087 1.597-.245zm-9.674 3.272c.307-.922 1.092-1.603 2.049-1.777l3.72-.676 2.308 2.308 2.308-2.308 3.72.676c.956.175 1.742.855 2.049 1.777l.766 2.296h-11.009l-2.073-2.073-2.304 2.084c-.201.202-.551.202-.753 0l-1.162-1.162.381-1.144zm-4.879-6.806l2.441 2.441-.578.578-2.441-2.441.578-.578zm9.333 12.582c-.502.501-1.171.779-1.882.779-.711 0-1.379-.277-1.882-.78l-7.193-7.193c-.502-.503-.779-1.171-.779-1.882 0-.711.277-1.38.779-1.882l.293-.293 2.441 2.441-.019.019c-.622.623-.622 1.636 0 2.258l3.817 3.817c.302.301.703.468 1.129.468.427 0 .828-.166 1.11-.449l.04-.036 2.452 2.452-.306.28zm1.091-1.001l-2.447-2.447.703-.636 2.442 2.443-.699.64zM31.365 0h-7.452c-.88 0-1.597.716-1.597 1.597v4.258c0 .88.716 1.597 1.597 1.597h1.422l-.55 3.21 5.136-3.21h1.444c.88 0 1.597-.716 1.597-1.597v-4.258c0-.88-.716-1.597-1.597-1.597zm.532 5.855c0 .293-.239.532-.532.532h-1.749l-3.38 2.113.363-2.113h-2.684c-.293 0-.532-.239-.532-.532v-4.258c0-.293.239-.532.532-.532h7.452c.293 0 .532.239.532.532v4.258zM30.833 2.129h-6.387v1.065h6.387v-1.065zM28.704 4.258h-4.258v1.065h4.258v-1.065zM30.833 4.258h-1.064v1.065h1.064v-1.065zM16.462 1.597c-6.955 0-12.945 4.811-14.502 11.521l-1.009-1.681-.913.548 1.871 3.117 3.117-1.871-.548-.913-1.442.865c1.508-6.139 7.028-10.522 13.426-10.522 1.398 0 2.778.208 4.101.617l.315-1.017c-1.425-.442-2.91-.665-4.416-.665zM32.703 11.785l-3.117-1.871-1.87 3.118.913.548.931-1.553c.49 1.434.741 2.935.741 4.473 0 3.165-1.096 6.26-3.087 8.713l.827.671c2.144-2.642 3.325-5.975 3.325-9.384 0-1.628-.262-3.218-.774-4.74l1.564.938.548-.913z"/></g><defs><clipPath id="a"><path fill="#fff" d="M0 0h33v33h-33z"/></clipPath></defs></svg>
